X: 14760
T: Gan Ainm
R: waltz
M: 3/4
K: Dmajor
|:ag|f4 f2|f4 f2|f2 b2 a2|ag f2 g2|e4 d2|e4 e2|e2 a2 c2|d2 b2:|
|:A2|d2 dd dc|d2 dc de|fd Bc de|fd Bc de|e2 ed ed|e2 ed ec|dc Ac dB|A4:|
|:A2|d2 f2 F2|AF DF A2|ec Bc e2|fd cd d2|g2 b2 e2|f2 a2 d2|e2 g2 c2|d4:|

